X: 40067
T: Thrupenny Bit
R: jig
M: 6/8
K: Aminor
|:A2D D3|GAF G3|(3Bcd A cde|gec BAG|
A2D D3|GAF G3|(3Bcd B A cB|cGE D3:|
|:AFA ded|c3 AGE|FGA B gf|e2 e cAG|
A2d ded|c3 AGE|DEF AcB|cGE D3:|

